!!!OTL: The Flemmings of Torbay
!!!ONM: 115.
**kern
*clefG2
*k[b-e-a-]
*E-:
*M6/8
*MM84
{8b-
=1
4b-
8b-
(8e-
8g)
8b-
=2
4cc
8b-
4b-}
{8B-
=3
(8e-
8f)
8g
(8a-
8.g)
16f
=4
[4.c
8c]
8r}
{8b-
=5
4b-
8b-
(8e-
8g)
8b-
=6
4cc
8b-
4b-}
{8B-
=7
(8e-
8f)
8g
(8a-
8.g)
16f
=8
[4.c
8c]
8r}
{8b-
=9
4b-
8b-
(8e-
8g)
8b-
=10
4cc
8b-
4b-}
{8B-
=11
(8e-
8f)
8g
(8a-
8.g)
16f
=12
[4.c
8c]}
{8.g
16g
=13
4g
8e-
4c
(16e-
16g)
=14
4.g
4e-}
{16B-
16B-
=15
4c
8e-
4e-
8d
=16
[4.e-
4e-]}
==
*-
!!!CNT: Folksongs of Maritime Canada
!!!MRD: 1928///-1932///
!!!OCL: Helen Creighton
!!!YOR: Songs and Ballads from Nova Scotia
!!!PPR: J.M. Dent & Sons, Limited
!!!PPP: Toronto, Canada
!!!PDT: 1932///
!!!reprint: Dover Publications, 1992: ISBN 0-486-21703-5
!!!ENC1: Craig Stuart Sapp (music and bibliographic data)                       
!!!ENC2: Marcus Pearce (phrase markings and key designations)                   
!!!ENC3: Darrell Conklin (phrase markings and key designations)   
!!!END: 2002/04/10/
!!!EEV: 2004/06/05
!!!MPN: Mr. Patrick Williams
!!!PPG: 248
!!!EFL: 116/152
!!!ARE: Canada; Nova Scotia
!!!verses: 13
!!!VTS: 992740691
